X:376
T:Dunecht Loon, The 
C:Joe Buchanan's Scottish Tome - Page 041.1
I:041 1
C:Graeme Mitchell
R:March
Z:Carl Allison
L:1/8
M:4/4
K:Dm
|"F" F2 "C/F"CA "F"A2 "C/F"FA |"F" C>D"C/F"FG "F"A2 "C/F"GA |
"Gm" B>AG"D/Gm"d "Gm"B2 "D/Gm"GB |"Gm" D>E"D/Gm"GA "Gm"B2 A>"C7"G |
"A7" fe |"Dm" d>e"A/Dm"fe "Dm"d2 "A/Dm"Ad |"Dm" FG>"A/Dm"Ad "Dm"f2 "G7"ed |
"Gm" B>AG"D/Gm"d "C7"ce"E7"a>g |"F" f2 f>"Bb"g "F"f2 :|
| "Dm"d>e"A/Dm"fe "Dm"d2 "A/Dm"Ad |"Dm" F>G"A/Dm"Ad "Dm"f2 "G7"ed  |
"C" c>d"G/C"ed "C"c2 "G/C"Gc |"C" G>C"G/C"ED "C"C2 "C#/A7"fe |
"C" c>d"G/C"ec "C#/A7"dage |"Dm" f2"Gm" d2 "Dm"d2 :|

